gnome/icons/Varda/apps/scalable/document-viewer.svg

<?xml version="1.0" encoding="UTF-8" standalone="no"?>
<svg
   xmlns:dc="http://purl.org/dc/elements/1.1/"
   xmlns:cc="http://creativecommons.org/ns#"
   xmlns:rdf="http://www.w3.org/1999/02/22-rdf-syntax-ns#"
   xmlns:svg="http://www.w3.org/2000/svg"
   xmlns="http://www.w3.org/2000/svg"
   xmlns:sodipodi="http://sodipodi.sourceforge.net/DTD/sodipodi-0.dtd"
   xmlns:inkscape="http://www.inkscape.org/namespaces/inkscape"
   width="64px"
   height="64px"
   viewBox="0 0 64 64"
   version="1.1"
   id="svg37"
   sodipodi:docname="document-viewer.svg"
   inkscape:version="1.0.2 (e86c870879, 2021-01-15)">
  <metadata
     id="metadata43">
    <rdf:RDF>
      <cc:Work
         rdf:about="">
        <dc:format>image/svg+xml</dc:format>
        <dc:type
           rdf:resource="http://purl.org/dc/dcmitype/StillImage" />
      </cc:Work>
    </rdf:RDF>
  </metadata>
  <defs
     id="defs41" />
  <sodipodi:namedview
     pagecolor="#ffffff"
     bordercolor="#666666"
     borderopacity="1"
     objecttolerance="10"
     gridtolerance="10"
     guidetolerance="10"
     inkscape:pageopacity="0"
     inkscape:pageshadow="2"
     inkscape:window-width="2560"
     inkscape:window-height="1403"
     id="namedview39"
     showgrid="false"
     inkscape:zoom="15.75"
     inkscape:cx="32"
     inkscape:cy="32"
     inkscape:window-x="0"
     inkscape:window-y="0"
     inkscape:window-maximized="1"
     inkscape:current-layer="surface1" />
  <g
     id="surface1">
    <path
       style="fill:#d0ebee;fill-opacity:1;fill-rule:nonzero;stroke:none"
       d="m 42.332031,3.144531 h -31.75 c -1.464843,0 -2.644531,1.179688 -2.644531,2.648438 v 52.914062 c 0,1.46875 1.179688,2.648438 2.644531,2.648438 h 42.335938 c 1.464843,0 2.644531,-1.179688 2.644531,-2.648438 V 16.375 Z m 0,0"
       id="path2" />
    <path
       style="fill:#2e3436;fill-opacity:1;fill-rule:nonzero;stroke:none"
       d="M 55.5625,16.375 42.332031,3.144531 v 10.585938 c 0,1.464843 1.179688,2.644531 2.648438,2.644531 z m 0,0"
       id="path6" />
    <path
       style="fill:#0c0e11;fill-opacity:1;fill-rule:nonzero;stroke:none"
       d="m 17.199219,24.3125 h 29.101562 c 0.730469,0 1.324219,0.570312 1.324219,1.269531 0,0.703125 -0.59375,1.269531 -1.324219,1.269531 H 17.199219 c -0.730469,0 -1.324219,-0.566406 -1.324219,-1.269531 0,-0.699219 0.59375,-1.269531 1.324219,-1.269531 z m 0,0"
       id="path8" />
    <path
       style="fill:#0c0e11;fill-opacity:1;fill-rule:nonzero;stroke:none"
       d="m 17.199219,19.019531 h 29.101562 c 0.730469,0 1.324219,0.59375 1.324219,1.324219 0,0.730469 -0.59375,1.324219 -1.324219,1.324219 H 17.199219 c -0.730469,0 -1.324219,-0.59375 -1.324219,-1.324219 0,-0.730469 0.59375,-1.324219 1.324219,-1.324219 z m 0,0"
       id="path10" />
    <path
       style="fill:#0c0e11;fill-opacity:1;fill-rule:nonzero;stroke:none"
       d="m 17.199219,34.894531 h 29.101562 c 0.730469,0 1.324219,0.550781 1.324219,1.230469 v 0.1875 c 0,0.679688 -0.59375,1.230469 -1.324219,1.230469 H 17.199219 C 16.46875,37.542969 15.875,36.992188 15.875,36.3125 V 36.125 c 0,-0.679688 0.59375,-1.230469 1.324219,-1.230469 z m 0,0"
       id="path12" />
    <path
       style="fill:#0c0e11;fill-opacity:1;fill-rule:nonzero;stroke:none"
       d="m 17.199219,29.710938 h 29.101562 c 0.730469,0 1.324219,0.566406 1.324219,1.269531 0,0.699219 -0.59375,1.269531 -1.324219,1.269531 H 17.199219 C 16.46875,32.25 15.875,31.679688 15.875,30.980469 c 0,-0.703125 0.59375,-1.269531 1.324219,-1.269531 z m 0,0"
       id="path14" />
    <path
       style="fill:#0c0e11;fill-opacity:1;fill-rule:nonzero;stroke:none"
       d="m 17.199219,40.1875 h 29.101562 c 0.730469,0 1.324219,0.550781 1.324219,1.230469 v 0.183593 c 0,0.679688 -0.59375,1.230469 -1.324219,1.230469 H 17.199219 c -0.730469,0 -1.324219,-0.550781 -1.324219,-1.230469 v -0.183593 c 0,-0.679688 0.59375,-1.230469 1.324219,-1.230469 z m 0,0"
       id="path16" />
  </g>
</svg>

<?xml version="1.0" encoding="UTF-8"?>
<svg xmlns="http://www.w3.org/2000/svg" xmlns:xlink="http://www.w3.org/1999/xlink" width="64px" height="64px" viewBox="0 0 64 64" version="1.1">
<g id="surface1">
<path style=" stroke:none;fill-rule:nonzero;fill:rgb(93.333334%,93.333334%,93.333334%);fill-opacity:1;" d="M 42.332031 3.144531 L 10.582031 3.144531 C 9.117188 3.144531 7.9375 4.324219 7.9375 5.792969 L 7.9375 58.707031 C 7.9375 60.175781 9.117188 61.355469 10.582031 61.355469 L 52.917969 61.355469 C 54.382812 61.355469 55.5625 60.175781 55.5625 58.707031 L 55.5625 16.375 Z M 42.332031 3.144531 "/>
<path style=" stroke:none;fill-rule:nonzero;fill:rgb(25.882354%,25.882354%,25.882354%);fill-opacity:1;" d="M 16.207031 45.480469 L 26.128906 45.480469 C 27.039062 45.480469 27.78125 46.21875 27.78125 47.132812 C 27.78125 48.046875 27.039062 48.785156 26.128906 48.785156 L 16.207031 48.785156 C 15.292969 48.785156 14.550781 48.046875 14.550781 47.132812 C 14.550781 46.21875 15.292969 45.480469 16.207031 45.480469 Z M 16.207031 45.480469 "/>
<path style=" stroke:none;fill-rule:nonzero;fill:rgb(74.117649%,74.117649%,74.117649%);fill-opacity:1;" d="M 55.5625 16.375 L 42.332031 3.144531 L 42.332031 13.730469 C 42.332031 15.195312 43.511719 16.375 44.980469 16.375 Z M 55.5625 16.375 "/>
<path style=" stroke:none;fill-rule:nonzero;fill:rgb(25.882354%,25.882354%,25.882354%);fill-opacity:1;" d="M 17.199219 24.3125 L 46.300781 24.3125 C 47.03125 24.3125 47.625 24.882812 47.625 25.582031 C 47.625 26.285156 47.03125 26.851562 46.300781 26.851562 L 17.199219 26.851562 C 16.46875 26.851562 15.875 26.285156 15.875 25.582031 C 15.875 24.882812 16.46875 24.3125 17.199219 24.3125 Z M 17.199219 24.3125 "/>
<path style=" stroke:none;fill-rule:nonzero;fill:rgb(25.882354%,25.882354%,25.882354%);fill-opacity:1;" d="M 17.199219 19.019531 L 46.300781 19.019531 C 47.03125 19.019531 47.625 19.613281 47.625 20.34375 C 47.625 21.074219 47.03125 21.667969 46.300781 21.667969 L 17.199219 21.667969 C 16.46875 21.667969 15.875 21.074219 15.875 20.34375 C 15.875 19.613281 16.46875 19.019531 17.199219 19.019531 Z M 17.199219 19.019531 "/>
<path style=" stroke:none;fill-rule:nonzero;fill:rgb(25.882354%,25.882354%,25.882354%);fill-opacity:1;" d="M 17.199219 34.894531 L 46.300781 34.894531 C 47.03125 34.894531 47.625 35.445312 47.625 36.125 L 47.625 36.3125 C 47.625 36.992188 47.03125 37.542969 46.300781 37.542969 L 17.199219 37.542969 C 16.46875 37.542969 15.875 36.992188 15.875 36.3125 L 15.875 36.125 C 15.875 35.445312 16.46875 34.894531 17.199219 34.894531 Z M 17.199219 34.894531 "/>
<path style=" stroke:none;fill-rule:nonzero;fill:rgb(25.882354%,25.882354%,25.882354%);fill-opacity:1;" d="M 17.199219 29.710938 L 46.300781 29.710938 C 47.03125 29.710938 47.625 30.277344 47.625 30.980469 C 47.625 31.679688 47.03125 32.25 46.300781 32.25 L 17.199219 32.25 C 16.46875 32.25 15.875 31.679688 15.875 30.980469 C 15.875 30.277344 16.46875 29.710938 17.199219 29.710938 Z M 17.199219 29.710938 "/>
<path style=" stroke:none;fill-rule:nonzero;fill:rgb(25.882354%,25.882354%,25.882354%);fill-opacity:1;" d="M 17.199219 40.1875 L 46.300781 40.1875 C 47.03125 40.1875 47.625 40.738281 47.625 41.417969 L 47.625 41.601562 C 47.625 42.28125 47.03125 42.832031 46.300781 42.832031 L 17.199219 42.832031 C 16.46875 42.832031 15.875 42.28125 15.875 41.601562 L 15.875 41.417969 C 15.875 40.738281 16.46875 40.1875 17.199219 40.1875 Z M 17.199219 40.1875 "/>
<path style=" stroke:none;fill-rule:nonzero;fill:rgb(25.882354%,25.882354%,25.882354%);fill-opacity:1;" d="M 37.371094 45.480469 L 47.292969 45.480469 C 48.207031 45.480469 48.949219 46.21875 48.949219 47.132812 C 48.949219 48.046875 48.207031 48.785156 47.292969 48.785156 L 37.371094 48.785156 C 36.460938 48.785156 35.71875 48.046875 35.71875 47.132812 C 35.71875 46.21875 36.460938 45.480469 37.371094 45.480469 Z M 37.371094 45.480469 "/>
<path style=" stroke:none;fill-rule:nonzero;fill:rgb(25.882354%,25.882354%,25.882354%);fill-opacity:1;" d="M 26.457031 45.480469 L 36.378906 45.480469 L 36.378906 48.125 L 26.457031 48.125 Z M 26.457031 45.480469 "/>
<path style=" stroke:none;fill-rule:nonzero;fill:rgb(36.470589%,25.098041%,21.568628%);fill-opacity:1;" d="M 54.902344 46.800781 C 56 46.800781 56.886719 47.6875 56.886719 48.785156 C 56.886719 49.886719 56 50.769531 54.902344 50.769531 L 31.089844 50.769531 C 26.457031 50.769531 15.214844 53.417969 15.214844 61.355469 C 11.246094 61.355469 6.613281 61.355469 7.277344 58.707031 C 9.261719 52.753906 15.214844 46.800781 25.796875 46.800781 Z M 54.902344 46.800781 "/>
<path style=" stroke:none;fill-rule:nonzero;fill:rgb(47.450981%,33.333334%,28.235295%);fill-opacity:1;" d="M 8.597656 46.800781 C 7.5 46.800781 6.613281 47.6875 6.613281 48.785156 C 6.613281 49.886719 7.5 50.769531 8.597656 50.769531 L 32.410156 50.769531 C 37.042969 50.769531 48.285156 53.417969 48.285156 61.355469 C 52.253906 61.355469 56.886719 61.355469 56.222656 58.707031 C 54.238281 52.753906 48.285156 46.800781 37.703125 46.800781 Z M 8.597656 46.800781 "/>
<path style=" stroke:none;fill-rule:nonzero;fill:rgb(69.01961%,74.509805%,77.254903%);fill-opacity:0.54902;" d="M 44.980469 44.15625 C 50.09375 44.15625 54.238281 47.332031 54.238281 51.246094 L 54.238281 51.621094 C 54.238281 55.535156 50.09375 58.707031 44.980469 58.707031 C 39.863281 58.707031 35.71875 55.535156 35.71875 51.621094 L 35.71875 51.246094 C 35.71875 47.332031 39.863281 44.15625 44.980469 44.15625 Z M 44.980469 44.15625 "/>
<path style=" stroke:none;fill-rule:nonzero;fill:rgb(55.29412%,43.137255%,38.82353%);fill-opacity:1;" d="M 31.75 46.800781 C 29.550781 46.800781 27.78125 48.570312 27.78125 50.769531 C 27.78125 51.503906 28.371094 52.09375 29.105469 52.09375 C 29.835938 52.09375 30.425781 51.503906 30.425781 50.769531 C 30.425781 50.039062 31.015625 49.449219 31.75 49.449219 C 32.484375 49.449219 33.074219 50.039062 33.074219 50.769531 L 33.128906 50.769531 C 33.09375 50.875 33.074219 50.984375 33.074219 51.101562 C 33.074219 51.652344 33.515625 52.09375 34.066406 52.09375 C 34.613281 52.09375 35.058594 51.652344 35.058594 51.101562 C 35.058594 50.984375 35.039062 50.875 35 50.769531 L 35.71875 50.769531 C 35.71875 48.570312 33.949219 46.800781 31.75 46.800781 Z M 31.75 46.800781 "/>
<path style=" stroke:none;fill-rule:nonzero;fill:rgb(55.29412%,43.137255%,38.82353%);fill-opacity:1;" d="M 44.878906 41.511719 C 38.960938 41.511719 34.199219 45.714844 34.199219 50.9375 L 34.199219 51.929688 C 34.199219 57.148438 38.960938 61.355469 44.878906 61.355469 C 50.796875 61.355469 55.5625 57.148438 55.5625 51.929688 L 55.5625 50.9375 C 55.5625 45.714844 50.796875 41.511719 44.878906 41.511719 Z M 44.878906 44.15625 C 49.21875 44.15625 52.714844 47.238281 52.714844 51.070312 L 52.714844 51.796875 C 52.714844 55.625 49.21875 58.707031 44.878906 58.707031 C 40.539062 58.707031 37.046875 55.625 37.046875 51.796875 L 37.046875 51.070312 C 37.046875 47.238281 40.539062 44.15625 44.878906 44.15625 Z M 44.878906 44.15625 "/>
<path style=" stroke:none;fill-rule:nonzero;fill:rgb(69.01961%,74.509805%,77.254903%);fill-opacity:0.54902;" d="M 18.519531 44.15625 C 23.636719 44.15625 27.78125 47.332031 27.78125 51.246094 L 27.78125 51.621094 C 27.78125 55.535156 23.636719 58.707031 18.519531 58.707031 C 13.40625 58.707031 9.261719 55.535156 9.261719 51.621094 L 9.261719 51.246094 C 9.261719 47.332031 13.40625 44.15625 18.519531 44.15625 Z M 18.519531 44.15625 "/>
<path style=" stroke:none;fill-rule:nonzero;fill:rgb(55.29412%,43.137255%,38.82353%);fill-opacity:1;" d="M 18.519531 41.511719 C 12.601562 41.511719 7.839844 45.714844 7.839844 50.9375 L 7.839844 51.929688 C 7.839844 57.148438 12.601562 61.355469 18.519531 61.355469 C 24.4375 61.355469 29.203125 57.148438 29.203125 51.929688 L 29.203125 50.9375 C 29.203125 45.714844 24.4375 41.511719 18.519531 41.511719 Z M 18.519531 44.15625 C 22.859375 44.15625 26.355469 47.238281 26.355469 51.070312 L 26.355469 51.796875 C 26.355469 55.625 22.859375 58.707031 18.519531 58.707031 C 14.179688 58.707031 10.6875 55.625 10.6875 51.796875 L 10.6875 51.070312 C 10.6875 47.238281 14.179688 44.15625 18.519531 44.15625 Z M 18.519531 44.15625 "/>
</g>
</svg>
